X:1
T:Naples, 76.76 D
T:Louis Falk, 1912
T:Naples, 76.76 D
T:Public Domain
C:Louis Falk, 1912
Z:Public Domain
%%score ( 1 2 ) ( 3 4 )
L:1/8
M:4/4
K:G
V:1 treble 
V:2 treble 
V:3 bass 
V:4 bass 
V:1
 [GB]2 [GB]2 (dc)(AB) | [EG]2 [CE]2 [DG]4 | [FA]2 [FA]2 [GB]2 (AG) | [FA]4 [Fd]4 | %4
 [GB]2 [GB]2 (dc)(AB) | [EG]2 E2 [DG]4 | ([DF][^CG]) [DA]2 ([DB][G^c]) [Fd]2 | [Ge]4 [Fd]4 | %8
 [Bd]2 [ce]2 ([Ac][GB]) [FA]2 | [DF]2 [FB]2 [EG]4 | ([CE][DF]) [DG]2 (AB)(EA) | [GB]4 [FA]4 | %12
 [GB]2 [GB]2 (dc)(AB) | [EG]2 E2 [DG]4 | ([CE][DF])(GA) [DB]2 [Ec]2 | (G2 F2) [DG]4 |] %16
V:2
 x4 A2 F2 | x8 | x6 G2 | x8 | x4 A2 F2 | x2 E2 x4 | x8 | x8 | x8 | x8 | x4 E2 c2 | x8 | x4 A2 F2 | %13
 x2 E2 x4 | x2 D2 x4 | A4 x4 |] %16
V:3
 [G,D]2 [G,D]2 [G,D]2 [D,C]2 | [E,B,]2 [C,C]2 [G,,B,]4 | [D,D]2 [D,D]2 [G,D]2 [E,^C]2 | %3
 [D,D]4 A,2 D2 | [G,D]2 [G,D]2 [F,D]2 [D,C]2 | [E,B,]2 [C,C]2 [G,,B,]4 | %6
 (D,E,) [F,D]2 ([G,D][E,A,]) [D,A,]2 | [A,,^C]4 [D,A,]4 | [D,D]2 [D,D]2 [D,D]2 [D,D]2 | %9
 [D,C]2 [^D,B,]2 [E,B,]4 | (CA,) [B,,G,]2 ([C,G,][B,,^G,])(A,E) | [D,D]4 [D,D]4 | %12
 [G,D]2 [G,D]2 [F,D]2 [D,C]2 | [E,B,]2 [C,C]2 [G,,B,]4 | (G,A,)([B,,G,][D,F,]) G,2 [C,G,]2 | %15
 [D,C]4 [G,,B,]4 |] %16
V:4
 x8 | x8 | x8 | x4 D,4 | x8 | x8 | A,2 x6 | x8 | x8 | x8 | C,2 x3 A,,2 x | x8 | x8 | x8 | %14
 C,2 x G,2 x3 | x8 |] %16

